X:3
T:Bondpolska fraan Overhaerde
R:polska J
Z:on index card
M:3/4
L:1/8
K:G
D |: G>A B2 G>B | B>A A2- A>B | c2 cB A>G | [1 (3FEF G>D B,>D :| [2 (3FEF G3 B ||
|: d2 d>c c>B | cf | g2 g>f e>d | (3^cBc d2- d>B \
|  d2 d>c c>B | cB | c2 c>B A>G |(3FEF G4 :|
